X:1
T:Title
%%score 1 { 2 | 3 }
L:1/8
Q:1/4=85
M:4/4
K:F
V:1 treble nm="Grand Piano, Soprano"
V:2 bass nm="Choir Pad, I Obey, Gould &amp; Brown 1897"
V:3 bass 
V:1
 C[CA][CG][CF] [CF][CE][C_E][C=E] | C[CB][EA][EG] [FA]4 | C[Cc][FB][FA] [Fd][DB][DA][DG] | %3
w: By~Isabella~G.~Gould~&~Pluma~M.~Brown,~~1897 * * * * * * *|||
 [CE][DB][EA][EG] F4 | [Ac][Ac][Ac][Ac] [Bd]>[Bd] [Bd][Bd] | [Bd][Ec][Gc][Bc] [Ac]4 | %6
w: |||
 [FA][Ac] [Ac]>[Ac] [Bd][Bd][Gc][GB] | [FA][FA][EA][EG] F4- | F4 z4 |] %9
w: |||
V:2
 A,CB,A, B,B,B,B, | G,G,CC C4 | F,F,F,F, B,B,B,B, | B,G,CB, A,4 | CCCC B,>[K:bass]B, B,B, | %5
 G,G,[K:treble]CC C4 | CC C>C B,B,DD | C[K:bass]CCB, A,4- | A,4 z4 |] %9
V:3
 F,F,F,F, G,G,G,G, | C,C,C,C, F,4 | A,,A,,D,D, B,,B,,B,,B,, | C,C,C,C, F,4 | %4
 F,F,F,F, B,,>B,, B,,B,, | C,C,E,G, F,4 | F,F, F,>F, B,,B,,B,,B,, | C,C,C,C, F,4- | F,4 z4 |] %9

